X:17
T:Casadh An tS\'ug\'ain
R:air
H:Also played with doubled parts
H:See also "An Suisin B\'an", set dance#18
H:See also "Casadh An tS\'ug\'ain", slow air#4
Z:id:hn-air-17
M:C|
L:1/8
Q:1/4=110
K:G
GA | B2GE D2DE | G2AB c2Ac | BAGD E2E2 | E6 DE |
G2G2 A2GA | B2GE D2DE | G2GF G4- | G6 ||
Bd | e2e2 d3g | e2eg edcB | c2Ac BAGD | E6 DE |
G2G2 A2GA | B2GE D2DE | G2GF G4- | G6 || 

